app/assets/images/numeratie.svg

<svg width="48" height="48" viewBox="0 0 48 48" fill="none" xmlns="http://www.w3.org/2000/svg">
<circle cx="24" cy="24" r="24" fill="#6E84FE"/>
<path fill-rule="evenodd" clip-rule="evenodd" d="M17.25 13.125C17.25 12.5037 16.7463 12 16.125 12C15.5037 12 15 12.5037 15 13.125V16.5H11.625C11.0037 16.5 10.5 17.0037 10.5 17.625C10.5 18.2463 11.0037 18.75 11.625 18.75H15V22.125C15 22.7463 15.5037 23.25 16.125 23.25C16.7463 23.25 17.25 22.7463 17.25 22.125V18.75H20.625C21.2463 18.75 21.75 18.2463 21.75 17.625C21.75 17.0037 21.2463 16.5 20.625 16.5H17.25V13.125Z" fill="white"/>
<path fill-rule="evenodd" clip-rule="evenodd" d="M34.3525 15.3185C34.7918 14.8791 34.7918 14.1668 34.3525 13.7275C33.9131 13.2881 33.2008 13.2881 32.7615 13.7275L30.375 16.114L27.9885 13.7275C27.5492 13.2881 26.8369 13.2881 26.3975 13.7275C25.9582 14.1668 25.9582 14.8791 26.3975 15.3185L28.784 17.705L26.3975 20.0914C25.9582 20.5308 25.9582 21.2431 26.3975 21.6824C26.8369 22.1218 27.5492 22.1218 27.9885 21.6824L30.375 19.2959L32.7615 21.6824C33.2008 22.1218 33.9131 22.1218 34.3525 21.6824C34.7918 21.2431 34.7918 20.5308 34.3525 20.0914L31.966 17.705L34.3525 15.3185Z" fill="white"/>
<path fill-rule="evenodd" clip-rule="evenodd" d="M25.875 27.75C25.2537 27.75 24.75 28.2537 24.75 28.875C24.75 29.4963 25.2537 30 25.875 30H34.875C35.4963 30 36 29.4963 36 28.875C36 28.2537 35.4963 27.75 34.875 27.75H25.875ZM25.875 32.25C25.2537 32.25 24.75 32.7537 24.75 33.375C24.75 33.9963 25.2537 34.5 25.875 34.5H34.875C35.4963 34.5 36 33.9963 36 33.375C36 32.7537 35.4963 32.25 34.875 32.25H25.875Z" fill="white"/>
<path fill-rule="evenodd" clip-rule="evenodd" d="M17.25 27.375C17.25 27.9963 16.7463 28.5 16.125 28.5C15.5037 28.5 15 27.9963 15 27.375C15 26.7537 15.5037 26.25 16.125 26.25C16.7463 26.25 17.25 26.7537 17.25 27.375ZM10.5 31.125C10.5 30.5037 11.0037 30 11.625 30H20.625C21.2463 30 21.75 30.5037 21.75 31.125C21.75 31.7463 21.2463 32.25 20.625 32.25H11.625C11.0037 32.25 10.5 31.7463 10.5 31.125ZM16.125 36C16.7463 36 17.25 35.4963 17.25 34.875C17.25 34.2537 16.7463 33.75 16.125 33.75C15.5037 33.75 15 34.2537 15 34.875C15 35.4963 15.5037 36 16.125 36Z" fill="white"/>
</svg>

<svg width="48" height="48" fill="none" xmlns="http://www.w3.org/2000/svg"><circle cx="24" cy="24" r="24" fill="#6E84FE"/><path fill-rule="evenodd" clip-rule="evenodd" d="M17.25 13.125a1.125 1.125 0 00-2.25 0V16.5h-3.375a1.125 1.125 0 000 2.25H15v3.375a1.125 1.125 0 002.25 0V18.75h3.375a1.125 1.125 0 000-2.25H17.25v-3.375zM34.352 15.319a1.125 1.125 0 00-1.59-1.592l-2.387 2.387-2.387-2.387a1.125 1.125 0 10-1.59 1.591l2.386 2.387-2.386 2.386a1.125 1.125 0 001.59 1.591l2.387-2.386 2.386 2.386a1.125 1.125 0 101.591-1.59l-2.386-2.387 2.386-2.386zM25.875 27.75a1.125 1.125 0 000 2.25h9a1.125 1.125 0 000-2.25h-9zm0 4.5a1.125 1.125 0 000 2.25h9a1.125 1.125 0 000-2.25h-9zM17.25 27.375a1.125 1.125 0 11-2.25 0 1.125 1.125 0 012.25 0zm-6.75 3.75c0-.621.504-1.125 1.125-1.125h9a1.125 1.125 0 010 2.25h-9a1.125 1.125 0 01-1.125-1.125zM16.125 36a1.125 1.125 0 100-2.25 1.125 1.125 0 000 2.25z" fill="#fff"/></svg>
